X: 1
T: Allie Crocker's Reel
C: Lawrence Grogan c.1725
R: reel
S: Fiddle Hell Online 2021-04-15 Rodney Miller jam
Z: 2021 John Chambers <jc:trillian.mit.edu>
M: C|
L: 1/8
K: D
|:\
"D"Addc "Bm"d2df | "Em"edcd "A"efga | "D"fddc "Bm"d2df | "Em"edcB "A"AGFE |
"D"Dddc "Bm"d2df | "Em"edcd "A"efga | "D"fddc "Bm"d2df | "Em"edcd "A"efge :|
|:\
"D"faa^g a3a | "B7"bagf "Em"efg2 | "A"Aggf g2gb | agfe "D"def2 |
"D"Addd "A"dccc | "G"cBBB "D"BAAA | "A"Aggf g3b | agfe "D"d2d2 :|
